src/assets/icons/roadmap.svg

<svg width="24" height="24" viewBox="0 0 24 24" fill="none" xmlns="http://www.w3.org/2000/svg">
<path d="M2 20C0.897 20 0 20.897 0 22C0 23.103 0.897 24 2 24C3.103 24 4 23.103 4 22C4 20.897 3.103 20 2 20ZM2 23C1.449 23 1 22.552 1 22C1 21.448 1.449 21 2 21C2.551 21 3 21.448 3 22C3 22.552 2.551 23 2 23ZM10.5 16C10.5 17.103 11.397 18 12.5 18C13.603 18 14.5 17.103 14.5 16C14.5 14.897 13.603 14 12.5 14C11.397 14 10.5 14.897 10.5 16ZM13.5 16C13.5 16.552 13.052 17 12.5 17C11.948 17 11.5 16.552 11.5 16C11.5 15.448 11.949 15 12.5 15C13.051 15 13.5 15.448 13.5 16ZM2 13C2 10.794 3.794 9.00001 6 9.00001H15.5C15.776 9.00001 16 9.22401 16 9.50001C16 9.77601 15.776 10 15.5 10H6C4.346 10 3 11.346 3 13C3 14.654 4.346 16 6 16H8.5C8.776 16 9 16.224 9 16.5C9 16.776 8.776 17 8.5 17H6C3.794 17 2 15.206 2 13ZM24 19.5C24 21.43 22.43 23 20.5 23H6.5C6.224 23 6 22.776 6 22.5C6 22.224 6.224 22 6.5 22H20.5C21.879 22 23 20.879 23 19.5C23 18.121 21.879 17 20.5 17H16.5C16.224 17 16 16.776 16 16.5C16 16.224 16.224 16 16.5 16H20.5C22.43 16 24 17.57 24 19.5ZM18.5 10C18.776 10 19 9.77601 19 9.50001V6.30901L23.348 4.13401C24.228 3.53801 24.224 2.12601 23.269 1.53701C22.833 1.35601 20.277 0.161007 19.874 0.0610068C18.968 -0.240993 17.976 0.543007 18 1.48401V9.50001C18 9.77601 18.224 10 18.5 10ZM19 1.48401C19 1.33001 19.074 1.18301 19.199 1.09001C19.43 0.892007 19.795 1.08701 20.047 1.19101L22.781 2.40501C23.056 2.55401 23.053 3.11701 22.841 3.27401L19 5.19101V1.48401Z" fill="#787891"/>
</svg>

<?xml version="1.0" encoding="UTF-8"?>
<svg xmlns="http://www.w3.org/2000/svg" id="Layer_1" data-name="Layer 1" viewBox="0 0 24 24">
  <path d="M2,20c-1.103,0-2,.897-2,2s.897,2,2,2,2-.897,2-2-.897-2-2-2Zm0,3c-.551,0-1-.448-1-1s.449-1,1-1,1,.448,1,1-.449,1-1,1Zm8.5-7c0,1.103,.897,2,2,2s2-.897,2-2-.897-2-2-2-2,.897-2,2Zm3,0c0,.552-.448,1-1,1s-1-.448-1-1,.449-1,1-1,1,.448,1,1ZM2,13c0-2.206,1.794-4,4-4H15.5c.276,0,.5,.224,.5,.5s-.224,.5-.5,.5H6c-1.654,0-3,1.346-3,3s1.346,3,3,3h2.5c.276,0,.5,.224,.5,.5s-.224,.5-.5,.5h-2.5c-2.206,0-4-1.794-4-4Zm22,6.5c0,1.93-1.57,3.5-3.5,3.5H6.5c-.276,0-.5-.224-.5-.5s.224-.5,.5-.5h14c1.379,0,2.5-1.121,2.5-2.5s-1.121-2.5-2.5-2.5h-4c-.276,0-.5-.224-.5-.5s.224-.5,.5-.5h4c1.93,0,3.5,1.57,3.5,3.5Zm-5.5-9.5c.276,0,.5-.224,.5-.5v-3.191l4.348-2.175c.88-.596,.876-2.008-.079-2.597-.436-.181-2.992-1.376-3.395-1.476-.906-.302-1.898,.482-1.874,1.423V9.5c0,.276,.224,.5,.5,.5Zm.5-8.516c0-.154,.074-.301,.199-.394,.231-.198,.596-.003,.848,.101l2.734,1.214c.275,.149,.272,.712,.06,.869l-3.841,1.917V1.484Z"/>
</svg>
